src/assets/images/icons/protocols/neon.svg

<svg width="101" height="101" viewBox="0 0 101 101" fill="none" xmlns="http://www.w3.org/2000/svg">
<circle cx="50.7039" cy="50.5383" r="50" fill="#DF42AB"/>
<path d="M49.3268 47.2712L30.6121 28.5699C30.4708 28.4287 30.1884 28.2876 30.0471 28.217C29.7646 28.1465 29.4822 28.217 29.2703 28.2876C28.9878 28.3581 28.7759 28.5699 28.6347 28.7816C28.4934 29.0639 28.4228 29.2756 28.4228 29.5579V50.2352C28.3522 50.3764 28.3522 50.4472 28.3522 50.5884V71.6184C28.3522 71.7596 28.3522 71.9716 28.4228 72.1124C28.4934 72.2536 28.5641 72.3948 28.7053 72.536C28.8457 72.6764 28.9862 72.7468 29.1266 72.8172L29.129 72.8184C29.1997 72.8184 29.288 72.836 29.3762 72.8536C29.4645 72.8712 29.5528 72.8888 29.6234 72.8888H50.8098C50.9511 72.8888 51.1629 72.8888 51.3042 72.8184L51.3066 72.8172C51.447 72.7468 51.5874 72.6764 51.7279 72.536C51.8692 72.3948 51.9398 72.2536 52.0104 72.1124C52.081 71.9716 52.081 71.7596 52.081 71.6184V53.8344L70.7957 72.536C70.8526 72.6498 71.0011 72.7176 71.1306 72.7766C71.1618 72.7909 71.1919 72.8046 71.2194 72.8184C71.4313 72.8888 71.5725 72.8888 71.7844 72.8888C71.9256 72.8888 72.1375 72.8888 72.2787 72.8184L72.2811 72.8172C72.4216 72.7468 72.562 72.6764 72.7024 72.536C72.8437 72.3948 72.9143 72.2536 72.9849 72.1124C73.0556 71.9716 73.0556 71.8304 73.0556 71.6184V29.5579C73.0556 29.4167 73.0556 29.205 72.9849 29.0639C72.9143 28.9227 72.8437 28.7816 72.7024 28.6405C72.5612 28.4993 72.42 28.4287 72.2787 28.3582C72.2081 28.3582 72.1198 28.3405 72.0315 28.3229C71.9432 28.3052 71.855 28.2876 71.7844 28.2876H50.598C50.4567 28.2876 50.2449 28.2876 50.1036 28.3582C49.9624 28.4287 49.8211 28.4993 49.6799 28.6405C49.5386 28.7816 49.468 28.9227 49.3974 29.0639C49.3268 29.205 49.3268 29.4167 49.3268 29.5579V47.2712Z" fill="white"/>
</svg>

<svg xmlns="http://www.w3.org/2000/svg" width="101" height="101" fill="none"><circle cx="50.704" cy="50.538" r="50" fill="#DF42AB"/><path fill="#fff" d="M49.327 47.271 30.612 28.57c-.141-.141-.424-.282-.565-.353-.282-.07-.565 0-.777.07-.282.071-.494.283-.635.495-.142.282-.212.494-.212.776v20.677c-.07.141-.07.212-.07.353v21.03c0 .142 0 .354.07.494.07.142.141.283.282.424.14.14.281.21.422.281l.002.001c.07 0 .159.018.247.036s.177.035.247.035H50.81c.141 0 .353 0 .494-.07l.003-.002c.14-.07.28-.14.42-.281.142-.141.213-.282.283-.424.071-.14.071-.352.071-.494V53.834l18.715 18.702c.057.114.205.182.335.24l.088.042c.212.07.354.07.565.07.142 0 .353 0 .495-.07h.002c.14-.071.281-.142.421-.282.142-.141.212-.282.283-.424.07-.14.07-.282.07-.494v-42.06c0-.141 0-.353-.07-.494a1.5 1.5 0 0 0-.283-.424 1.5 1.5 0 0 0-.423-.282c-.07 0-.16-.018-.248-.035a1.4 1.4 0 0 0-.247-.035H50.598c-.141 0-.353 0-.494.07s-.283.141-.424.282a1.5 1.5 0 0 0-.283.424c-.07.141-.07.353-.07.494z"/></svg>
